**kern	**kern	**dynam
*part1	*part1	*part1
*staff2	*staff1	*
*I"Piano	*	*
*clefF4	*clefG2	*
*k[b-e-a-]	*k[b-e-a-]	*
=1	=1	=1
!	!LO:TX:b:i:t=dim.	!
(8BBB-L 8BB-	4r	.
8A-	.	.
8B-J	8r	.
8dL>	8r	.
8f>	4r	.
8b-J>)	.	.
*clefG2	*	*
=	=	=
2.B-; 2.b- 2.cc	2.dd; 2.ff 2.bb- 2.ddd	p
*clefF4	*	*
=	=	=
*^	*^	*
8E-L	4EE-	4ee- 4gg 4bb- 4eee-	4r	.
8F#X	.	.	.	.
!	!	!LO:TX:a:i:t=il canto espressivo e legato	!	!
8An	4r	4dd	8r	mp
8cJ	.	.	8e-L	.
4ryy	4r	4cc	8g-X	.
.	.	.	8anJ	.
=	=	=	=	=
!	!	!	!	!LO:DY:a
8E-L	4EE-	4ee-	4r	<
8F#X	.	.	.	.
8An	4r	4dd	8r	.
8cJ	.	.	8e-L	.
4ryy	4r	4cc	8f#X	.
.	.	.	8anJ	.
=	=	=	=	=
!	!	!	!	!LO:DY:a
8BB-L	4BBB-	4b-	4re	[ >
8D	.	.	.	.
8FnJ	4r	4fn	8re	.
4.rEEyy	.	.	8A-L<	.
.	4r	4g	8B-<	.
.	.	.	8dJ<	.
*v	*v	*	*	*
=	=	=	=
4r	2a-	8rg	]
.	.	8dL	.
4BB-	.	8f	.
.	.	8B-	.
4EE-	4g	8e-	.
.	.	8GJ<	.
=	=	=	=
*^	*	*	*
!	!	!	!	!LO:DY:a
!	!	!	!	!LO:DY:a
8E-L	4EE-	4ee-	4r	f <
8F#X	.	.	.	.
8An	4rBB	4dd	8r	.
8cJ	.	.	8e-L	.
4ryy	4rBB	4cc	8f#X	.
.	.	.	8anJ	.
*v	*v	*	*	*
*	*v	*v	*
=	=	=
*-	*-	*-
!!!system-decoration: {(s1,s2)}
!!!RDF**kern: > = above
!!!RDF**kern: < = below
